outputs/icons/editor/no_color_sharp.svg

<svg width="1200" height="1200" viewBox="0 0 1200 1200" fill="none" xmlns="http://www.w3.org/2000/svg"><g clip-path="url(#clip0_125_1482)"><path d="M900 700.01C900 501.01 600 160.01 600 160.01C600 160.01 541 227.51 475 319.51L897 741.51C898.5 728.01 900 714.01 900 700.01ZM270.5 257.01L200 327.51L366 493.51C327.5 566.51 300 639.51 300 700.01C300 865.51 434.5 1000.01 600 1000.01C676 1000.01 745 971.51 797.5 925.01L929 1056.51L1000 986.01L270.5 257.01Z" fill="#1D1E23"/></g><defs><clipPath id="clip0_125_1482"><path width="24" fill="white" d="M0 0H1200V1200H0V0z"/></clipPath></defs></svg>

<svg xmlns="http://www.w3.org/2000/svg" width="1200" height="1200" fill="none"><g clip-path="url(#a)"><path fill="#000" d="M900 700.01c0-199-300-540-300-540s-59 67.499-125 159.5l422 422c1.5-13.5 3-27.5 3-41.5m-629.5-443-70.5 70.5 166 166c-38.5 73-66 146-66 206.5 0 165.5 134.5 300 300 300 76 0 145-28.5 197.5-75l131.5 131.5 71-70.5z"/></g><defs><clipPath id="a"><path fill="#fff" d="M0 0h1200v1200H0z"/></clipPath></defs></svg>
